X:14825
T:Saltón (CT 336)
R:Saltón
C:Trad.
D:Felpeyu: Tierra
Z:Cancioneru de Torner 336
M:2/4
L:1/8
Q:1/4=168
K:G
 d4 | Bd BG | c2 cB | BA AG | A2 AG | FG AB | c2 cB | AG FA | G4 |
 | Bd BG | c2 cB | AG FG | A2 A2 | Bd BG | c2 cB | AG FA | G3 d |
 | ga gf | ed ee | dc Bc | ee Bg/g/ | ga gf | ed ee | dc BA | G4 |
 | Bd BG | c2 cB | BA AG | A2 AG | FG AB | c2 cB | AG FA | G3 e |
 | ef ed | cB cB | AG AB | cB Ae | ef ed | cB cB | AG FA | G3 G |
 | cd BG | c2 cB | BA AG | A2 AA | Bd BG | c2 cB | AG FA | G3 e |
 | ec/d/ ec | B A2 d | dB/c/ dB | A G2 e/e/ | ec/d/ ec |
 B A2 d/d/ | dB/c/ dB | A G3 |
 | Bd BG | c2 cB | AG AF | A2 A2 | Bd BG | c2 cB | AG AF | G4 ||


